assets/img/components/skipnav.svg

<svg width="272" height="143" viewBox="0 0 272 143" fill="none" xmlns="http://www.w3.org/2000/svg">
<path d="M0 76H272V135C272 139.418 268.418 143 264 143H8.00001C3.58173 143 0 139.418 0 135V76Z" fill="#EFF6FB"/>
<path d="M0 8C0 3.58172 3.58172 0 8 0H264C268.418 0 272 3.58172 272 8V32H0V8Z" fill="#EDEDED"/>
<circle cx="221.632" cy="16" r="5.5" fill="#D0D0CE"/>
<circle cx="244.632" cy="16" r="5.5" fill="#D0D0CE"/>
<path d="M171.232 18.5L116.189 18.499C114.355 18.499 113.132 17.4987 113.132 15.9982C113.132 14.4976 114.355 13.5 116.189 13.5L171.232 13.501C173.066 13.501 174.289 14.4986 174.289 15.9992C174.289 17.4997 173.066 18.5 171.232 18.5Z" fill="#D0D0CE"/>
<path d="M184.632 17.0399L187.08 14.6673C187.195 14.5558 187.342 14.5 187.52 14.5C187.698 14.5 187.844 14.5558 187.959 14.6673C188.074 14.7788 188.132 14.9208 188.132 15.0932C188.132 15.2655 188.074 15.4075 187.959 15.519L185.071 18.3175C184.946 18.4392 184.799 18.5 184.632 18.5C184.464 18.5 184.318 18.4392 184.192 18.3175L181.304 15.519C181.189 15.4075 181.132 15.2655 181.132 15.0932C181.132 14.9208 181.189 14.7788 181.304 14.6673C181.42 14.5558 181.566 14.5 181.744 14.5C181.922 14.5 182.068 14.5558 182.183 14.6673L184.632 17.0399Z" fill="#D0D0CE"/>
<rect y="34" width="272" height="40" fill="#F6F6F6"/>
<path d="M93.1648 50.9972H19.8717C18.1486 50.9972 17 49.7972 17 47.997C17 46.1968 18.1487 45 19.8717 45H93.1648C94.8878 45 96.0365 46.1968 96.0365 47.997C96.0365 49.7972 94.8878 50.9972 93.1648 50.9972Z" fill="#D0D0CE"/>
<path d="M56 63.9973L19.6575 63.9963C18.063 63.9963 17 62.996 17 61.4955C17 59.9949 18.063 58.9973 19.6575 58.9973L56 58.9983C57.5945 58.9983 58.6575 59.9959 58.6575 61.4965C58.6575 62.997 57.5945 63.9973 56 63.9973Z" fill="#D0D0CE"/>
<path d="M157.842 55.2622L115.658 55.2643C114.063 55.2643 113 54.264 113 52.7635C113 51.2629 114.063 50.2653 115.658 50.2653L157.842 50.2632C159.437 50.2632 160.5 51.2607 160.5 52.7613C160.5 54.2619 159.437 55.2622 157.842 55.2622Z" fill="#D0D0CE"/>
<path d="M211.842 55.2622L169.658 55.2643C168.063 55.2643 167 54.264 167 52.7635C167 51.2629 168.063 50.2653 169.658 50.2653L211.842 50.2632C213.437 50.2632 214.5 51.2607 214.5 52.7613C214.5 54.2619 213.437 55.2622 211.842 55.2622Z" fill="#D0D0CE"/>
<rect x="6.13184" y="4.7356" width="114.421" height="22.529" rx="3" fill="white" stroke="#154973" stroke-width="2"/>
<path d="M41.2598 13.502C41.3008 13.502 41.3414 13.5056 41.3818 13.5078C41.4223 13.5056 41.4629 13.502 41.5039 13.502H45.7598C47.0699 13.5022 48.1318 14.6214 48.1318 16.002C48.1316 17.3823 47.0697 18.5017 45.7598 18.502H41.5039C41.4629 18.5019 41.4223 18.4963 41.3818 18.4941C41.3413 18.4963 41.3008 18.5019 41.2598 18.502L17.5039 18.5C16.1938 18.4997 15.1318 17.3806 15.1318 16C15.1318 14.6194 16.1938 13.5003 17.5039 13.5L41.2598 13.502Z" fill="#457AA5"/>
<path d="M52.1318 16.0015C52.1318 14.6208 53.1941 13.5015 54.5044 13.5015H69.7593C71.0696 13.5015 72.1318 14.6208 72.1318 16.0015C72.1318 17.3822 71.0696 18.5015 69.7593 18.5015H54.5044C53.1941 18.5015 52.1318 17.3822 52.1318 16.0015Z" fill="#457AA5"/>
<path d="M76.1318 16.0015C76.1318 14.6208 77.1941 13.5015 78.5044 13.5015H108.259C109.57 13.5015 110.632 14.6208 110.632 16.0015C110.632 17.3822 109.57 18.5015 108.259 18.5015H78.5044C77.1941 18.5015 76.1318 17.3822 76.1318 16.0015Z" fill="#457AA5"/>
</svg>

<svg xmlns="http://www.w3.org/2000/svg" width="272" height="143" fill="none" viewBox="0 0 272 143"><path fill="#eff6fb" d="M0 76h272v59a8 8 0 0 1-8 8H8a8 8 0 0 1-8-8z"/><path fill="#ededed" d="M0 8a8 8 0 0 1 8-8h256a8 8 0 0 1 8 8v24H0z"/><circle cx="221.632" cy="16" r="5.5" fill="#d0d0ce"/><circle cx="244.632" cy="16" r="5.5" fill="#d0d0ce"/><path fill="#d0d0ce" d="m171.232 18.5-55.043-.001c-1.834 0-3.057-1-3.057-2.5s1.223-2.499 3.057-2.499l55.043.001c1.834 0 3.057.998 3.057 2.498s-1.223 2.501-3.057 2.501M184.632 17.04l2.448-2.373a.6.6 0 0 1 .44-.167q.267 0 .439.167a.57.57 0 0 1 .173.426.57.57 0 0 1-.173.426l-2.888 2.798a.6.6 0 0 1-.439.183.61.61 0 0 1-.44-.183l-2.888-2.798a.57.57 0 0 1-.172-.426q0-.258.172-.426a.6.6 0 0 1 .44-.167q.267 0 .439.167z"/><path fill="#f6f6f6" d="M0 34h272v40H0z"/><path fill="#d0d0ce" d="M93.165 50.997H19.872c-1.723 0-2.872-1.2-2.872-3S18.149 45 19.872 45h73.293c1.723 0 2.871 1.197 2.871 2.997s-1.148 3-2.871 3M56 63.997H19.658c-1.595 0-2.658-1.001-2.658-2.501s1.063-2.499 2.657-2.499L56 58.998c1.594 0 2.657.998 2.657 2.499 0 1.5-1.062 2.5-2.657 2.5M157.842 55.262l-42.184.002c-1.595 0-2.658-1-2.658-2.5s1.063-2.499 2.658-2.499l42.184-.002c1.595 0 2.658.998 2.658 2.498s-1.063 2.501-2.658 2.501M211.842 55.262l-42.184.002c-1.595 0-2.658-1-2.658-2.5s1.063-2.499 2.658-2.499l42.184-.002c1.595 0 2.658.998 2.658 2.498s-1.063 2.501-2.658 2.501"/><rect width="114.421" height="22.529" x="6.132" y="4.736" fill="#fff" stroke="#154973" stroke-width="2" rx="3"/><path fill="#457aa5" d="M41.26 13.502q.06.001.122.006.06-.005.122-.006h4.256c1.31 0 2.372 1.12 2.372 2.5s-1.062 2.5-2.372 2.5h-4.256c-.041 0-.082-.006-.122-.008-.04.002-.081.008-.122.008L17.504 18.5c-1.31 0-2.372-1.12-2.372-2.5s1.062-2.5 2.372-2.5zM52.132 16.002c0-1.381 1.062-2.5 2.372-2.5H69.76c1.31 0 2.373 1.119 2.373 2.5 0 1.38-1.062 2.5-2.373 2.5H54.504c-1.31 0-2.372-1.12-2.372-2.5M76.132 16.002c0-1.381 1.062-2.5 2.372-2.5h29.755c1.311 0 2.373 1.119 2.373 2.5 0 1.38-1.062 2.5-2.373 2.5H78.504c-1.31 0-2.372-1.12-2.372-2.5"/></svg>
